X: 4
T: Johnny Cope
R: polka
M: 2/4
L: 1/8
K: Fmaj
|:G4G3/2A/2 B/2c3/2|d2G2A3/2G/2 F/2D3/2||:B3c B2B,2|B3/2c/2 d/2e3/2 f4|A2G3/2F/2 F2G3/2c/2||:G2D2G3/2A/2 =B/2c3/2|d3/2c/2 B/2A3/2 c3/2B/2 A/2G3/2||:g4g2f/2g3/2|a2g2a3/2g/2 f/2d3/2|f4f2f3/2g/2|a2f2f/2a3/2|g4g2f/2g3/2|a2f2g2d2|f2c2d3/2c/2 B/2A3/2|G4G,4:||:G3/2^F/2 G/2A3/2 G3/2A/2 B/2c3/2|d3/2_e/2 d/2c3/2 B3/2A/2 B/2G3/2||:d3/2B/2 G/2B3/2 d3/2B/2 G/2B3/2|G3/2B/2 d/2g3/2 b3/2g/2 d/2B3/2|


Tune 2327	Setting 15701

